X:837
T:Cuil Aodha slide
T:Connie Walsh's slide
R:Slide
S:Richard Darsie
Z:Transcription, chords:Mike Long
M:12/8
L:1/8
K:D
"Bm"Bcd Bcd "A"c2B A2A|"Bm"Bcd "A"e2f "G"g3 f2g|\
"D"agf "A"gfe "D"f2d A2A|"G"Bcd "A"e2c "D"(d3d3):|
|:"D"a2f "A"gfe "D"f2d A2A|"Bm"Bcd "A"e2f "G"g3 f2g|\
"D"agf "A"gfe "D"f2d A2A|"G"Bcd "A"e2c "D"(d3d3):|
